src/assets/icons/money-bill.svg

<svg width="14" height="14" viewBox="0 0 14 14" fill="none" xmlns="http://www.w3.org/2000/svg">
<g id="money-bill">
<g clip-path="url(#clip0_156_4526)">
<g id="Vector">
<path fill-rule="evenodd" clip-rule="evenodd" d="M4.19974 6.99961C4.19974 5.45569 5.45567 4.19977 6.99958 4.19977C8.5435 4.19977 9.79943 5.45569 9.79943 6.99961C9.79943 8.54352 8.5435 9.79945 6.99958 9.79945C5.45567 9.79945 4.19974 8.54352 4.19974 6.99961ZM5.39968 6.99961C5.39968 7.88196 6.11724 8.59951 6.99958 8.59951C7.88193 8.59951 8.59949 7.88196 8.59949 6.99961C8.59949 6.11726 7.88193 5.3997 6.99958 5.3997C6.11724 5.3997 5.39968 6.11726 5.39968 6.99961Z" fill="black"/>
<path fill-rule="evenodd" clip-rule="evenodd" d="M12.5993 1.59991C13.3712 1.59991 13.9992 2.22788 14 2.99983V11.0002C14 11.7721 13.372 12.4001 12.6001 12.4001H1.3999C0.627949 12.4001 -1.52588e-05 11.7721 -1.52588e-05 11.0002V2.99983C-1.52588e-05 2.22788 0.627949 1.59991 1.3999 1.59991H12.5993ZM12.7993 4.33736V2.99983C12.7993 2.89104 12.7081 2.79984 12.5993 2.79904H11.2465L11.2449 2.80224C11.2153 2.90783 11.1993 3.01663 11.1993 3.12462C11.1993 3.4646 11.3321 3.78459 11.5729 4.02537C11.6641 4.11577 11.7689 4.18777 11.8793 4.24616C11.8977 4.25613 11.9174 4.26361 11.9372 4.27112C11.9491 4.27567 11.9611 4.28023 11.9729 4.28536C12.0593 4.32295 12.1481 4.35255 12.2409 4.36935C12.2745 4.37575 12.3081 4.37975 12.3417 4.38295C12.4385 4.39255 12.5369 4.39015 12.6353 4.37655C12.6446 4.37532 12.654 4.37432 12.6635 4.37331C12.6848 4.37104 12.7064 4.36873 12.7281 4.36375C12.7406 4.36082 12.7529 4.35549 12.7653 4.35015C12.7765 4.34528 12.7878 4.34041 12.7993 4.33736ZM2.75263 2.79985H1.3999C1.29191 2.79985 1.19992 2.89104 1.20072 3.00143V4.33895C1.2111 4.34182 1.22133 4.34629 1.23161 4.35078C1.24429 4.35632 1.25706 4.3619 1.27031 4.36455C1.29178 4.36915 1.31293 4.37147 1.33416 4.37379C1.34616 4.3751 1.35818 4.37642 1.3703 4.37815C1.4647 4.39095 1.55989 4.39334 1.65269 4.38455C1.69026 4.38055 1.72791 4.37654 1.76468 4.36935C1.85188 4.35255 1.93667 4.32456 2.01907 4.28936C2.03053 4.28456 2.04218 4.28012 2.05382 4.27567C2.07711 4.26678 2.1004 4.2579 2.12226 4.24616C2.23186 4.18697 2.33585 4.11656 2.42624 4.02617C2.66703 3.78538 2.79982 3.46541 2.79982 3.12543C2.79982 3.01743 2.78383 2.90864 2.75423 2.80304L2.75263 2.79985ZM1.19992 9.66105V10.9994C1.19992 11.1082 1.29191 11.1994 1.4007 11.1994H2.75343L2.75503 11.1962C2.78463 11.0906 2.80062 10.9818 2.80062 10.8738C2.80062 10.5338 2.66783 10.2138 2.42705 9.97303C2.33665 9.88264 2.23186 9.81145 2.12226 9.75305C2.10158 9.74167 2.07956 9.7333 2.0575 9.72492C2.04543 9.72033 2.03335 9.71574 2.02147 9.71064C1.93827 9.67545 1.85268 9.64665 1.76388 9.62985C1.72708 9.62265 1.69029 9.61865 1.65269 9.61465C1.55989 9.60585 1.4655 9.60825 1.37111 9.62105C1.35965 9.62265 1.34819 9.62389 1.33673 9.62514C1.31379 9.62763 1.29085 9.63012 1.26791 9.63545C1.25575 9.63839 1.24403 9.64352 1.23229 9.64866C1.22163 9.65333 1.21096 9.658 1.19992 9.66105ZM3.99976 10.8738C3.99976 10.9826 3.99336 11.0914 3.97816 11.1994V11.2026H10.0218C10.0074 11.0946 10.0002 10.9866 10.0002 10.877C10.0002 10.2162 10.2578 9.59465 10.725 9.12748C10.845 9.00748 10.9786 8.90749 11.1177 8.8163C11.1641 8.7859 11.2105 8.75951 11.2585 8.73231C11.3577 8.67631 11.4609 8.62831 11.5665 8.58671C11.5822 8.58035 11.5978 8.57379 11.6133 8.56724C11.6524 8.55074 11.6915 8.53428 11.7321 8.52111C11.8697 8.47792 12.0105 8.44832 12.1537 8.42992C12.2246 8.42019 12.2954 8.41831 12.3668 8.41641C12.3776 8.41612 12.3884 8.41583 12.3993 8.41552C12.4801 8.41312 12.5601 8.41473 12.6409 8.42033C12.6645 8.42209 12.688 8.42152 12.7115 8.42095C12.7412 8.42022 12.7709 8.4195 12.8009 8.42352V5.57968C12.765 5.58422 12.7294 5.58335 12.6937 5.58248C12.6666 5.58181 12.6394 5.58115 12.6121 5.58288C12.5907 5.58398 12.5697 5.58797 12.5487 5.59195C12.5241 5.59662 12.4995 5.60128 12.4745 5.60128C12.4484 5.60128 12.4232 5.59776 12.3979 5.59424C12.3782 5.59149 12.3585 5.58874 12.3385 5.58769C12.2673 5.58369 12.1985 5.57729 12.1281 5.56689C12.0153 5.55089 11.9057 5.52608 11.7969 5.49488C11.7854 5.49157 11.7739 5.48831 11.7624 5.48507C11.7158 5.47187 11.6695 5.45878 11.6233 5.44209C11.5017 5.39729 11.3865 5.3405 11.2737 5.2773C11.2581 5.26876 11.2423 5.26087 11.2265 5.25298C11.1994 5.23946 11.1723 5.22598 11.1465 5.2093C10.9962 5.11331 10.853 5.00372 10.7242 4.87492C10.257 4.40775 9.99941 3.78539 9.99941 3.12543C9.99941 3.01663 10.0058 2.90784 10.021 2.79985H3.97736C3.99176 2.90784 3.99896 3.01583 3.99896 3.12543C3.99896 3.78619 3.74137 4.40775 3.2742 4.87492C3.1454 5.00372 3.00301 5.1125 2.85262 5.2085C2.82833 5.22421 2.80262 5.2371 2.77685 5.25002C2.75933 5.2588 2.74178 5.26759 2.72463 5.2773C2.61183 5.3405 2.49744 5.39729 2.37665 5.44128C2.33003 5.45812 2.28288 5.47129 2.23521 5.48461C2.22399 5.48774 2.21274 5.49089 2.20146 5.49409C2.09346 5.52449 1.98467 5.54929 1.87188 5.56529C1.80148 5.57569 1.73269 5.58208 1.66149 5.58608C1.64284 5.58738 1.62447 5.5899 1.60608 5.59241C1.57951 5.59605 1.55292 5.59969 1.5255 5.59969C1.49993 5.59969 1.47531 5.59499 1.45074 5.5903C1.42994 5.58634 1.40918 5.58238 1.38791 5.58128C1.36228 5.57998 1.33678 5.58066 1.31131 5.58133C1.27397 5.58232 1.23668 5.58331 1.19912 5.57808V8.42192C1.22907 8.4179 1.25902 8.41862 1.28898 8.41934C1.31262 8.41991 1.33626 8.42048 1.35991 8.41871C1.4407 8.41311 1.5207 8.41152 1.60149 8.41392C1.61769 8.41455 1.63383 8.41508 1.64993 8.41562C1.71569 8.4178 1.78073 8.41997 1.84628 8.42832C1.98947 8.44672 2.13106 8.47632 2.26865 8.51951C2.30599 8.53178 2.34191 8.5469 2.37783 8.56201C2.39577 8.56956 2.41372 8.57711 2.43184 8.58431C2.53904 8.6259 2.64223 8.67391 2.74303 8.73071C2.79023 8.75711 2.83582 8.7835 2.88142 8.8131C3.02141 8.9035 3.155 9.00428 3.275 9.12428C3.74217 9.59145 3.99976 10.2138 3.99976 10.8738ZM11.2465 11.1994H12.5993C12.7081 11.1994 12.7993 11.1082 12.8001 11.0002V9.66265C12.7896 9.65952 12.7795 9.65504 12.7694 9.65057C12.7563 9.64475 12.7432 9.63896 12.7297 9.63625C12.7093 9.63167 12.6889 9.62935 12.6686 9.62704C12.6569 9.62572 12.6453 9.6244 12.6337 9.62265C12.5361 9.60985 12.4393 9.60665 12.3433 9.61625C12.3081 9.61945 12.2745 9.62345 12.2401 9.62985C12.1481 9.64665 12.0593 9.67625 11.9737 9.71305C11.9616 9.71831 11.9493 9.72297 11.937 9.72763C11.9175 9.73503 11.898 9.74243 11.8793 9.75224C11.7689 9.81064 11.6641 9.88264 11.5729 9.97303C11.3321 10.2138 11.1993 10.5338 11.1993 10.8738C11.1993 10.9818 11.2153 11.0906 11.2449 11.1962L11.2465 11.1994Z" fill="black"/>
</g>
</g>
</g>
<defs>
<clipPath id="clip0_156_4526">
<rect width="14" height="14" fill="white"/>
</clipPath>
</defs>
</svg>

<svg xmlns="http://www.w3.org/2000/svg" fill="none" viewBox="0 0 14 14"><g fill="#000" fill-rule="evenodd" clip-path="url(#a)" clip-rule="evenodd"><path d="M4.2 7c0-1.544 1.256-2.8 2.8-2.8S9.8 5.456 9.8 7 8.542 9.8 7 9.8A2.803 2.803 0 0 1 4.2 7m1.2 0c0 .882.717 1.6 1.6 1.6.882 0 1.6-.718 1.6-1.6S7.881 5.4 7 5.4 5.4 6.117 5.4 7"/><path d="M12.6 1.6c.771 0 1.4.628 1.4 1.4v8c0 .772-.628 1.4-1.4 1.4H1.4C.628 12.4 0 11.772 0 11V3c0-.772.628-1.4 1.4-1.4zm.2 2.737V3c0-.109-.092-.2-.2-.201h-1.354l-.001.003q-.046.16-.046.323c0 .34.133.66.374.9.091.09.196.163.306.221q.028.015.058.025l.036.014a1.2 1.2 0 0 0 .755.079q.02-.006.037-.014zM2.752 2.8H1.4c-.108 0-.2.091-.2.201V4.34q.016.004.032.012l.038.014a1 1 0 0 0 .1.013 1.2 1.2 0 0 0 .395-.009q.13-.025.254-.08l.035-.013q.035-.014.068-.03c.11-.059.214-.13.304-.22.241-.24.374-.56.374-.9q0-.164-.046-.323zM1.2 9.66V11c0 .11.092.2.2.2h1.353l.002-.003q.046-.159.046-.322c0-.34-.133-.66-.374-.901a1.3 1.3 0 0 0-.305-.22 1 1 0 0 0-.064-.028L2.02 9.71a1.3 1.3 0 0 0-.368-.096 1.2 1.2 0 0 0-.282.006l-.034.004q-.034.004-.07.01l-.035.014zM4 10.874q0 .163-.022.325v.004h6.044a2.458 2.458 0 0 1 .703-2.075 2.4 2.4 0 0 1 .534-.396 2.5 2.5 0 0 1 .354-.165q.06-.025.12-.046.205-.064.42-.091.107-.013.214-.014h.032q.121-.004.242.004.036.003.07 0 .045-.001.09.004V5.58q-.054.005-.107.002h-.082q-.031.004-.063.01a.4.4 0 0 1-.074.01q-.04-.001-.077-.008l-.06-.006a2.3 2.3 0 0 1-.576-.103q-.07-.019-.139-.043a2.4 2.4 0 0 1-.35-.165l-.046-.024q-.042-.02-.08-.044a2.46 2.46 0 0 1-1.125-2.41H3.976Q4 2.963 4 3.126A2.46 2.46 0 0 1 2.853 5.21a1 1 0 0 1-.076.041l-.052.027q-.169.096-.348.164-.07.024-.142.044l-.034.01a2.5 2.5 0 0 1-.54.091l-.055.006a1 1 0 0 1-.08.008q-.038-.001-.075-.01-.031-.007-.063-.009H1.31q-.055.003-.112-.003v2.844q.045-.005.09-.003h.07q.122-.008.242-.005l.049.002a2.1 2.1 0 0 1 .619.104q.055.019.109.042l.054.022a2.4 2.4 0 0 1 .45.23c.14.09.273.19.393.31A2.46 2.46 0 0 1 4 10.874m7.246.325H12.6c.11 0 .2-.09.201-.199V9.663l-.03-.012a.2.2 0 0 0-.04-.015q-.03-.006-.061-.009l-.035-.004a1.3 1.3 0 0 0-.394.007 1.2 1.2 0 0 0-.266.083l-.037.015q-.03.01-.058.024c-.11.059-.215.13-.306.221-.24.24-.374.56-.374.9q0 .165.046.323z"/></g><defs><clipPath id="a"><path fill="#fff" d="M0 0h14v14H0z"/></clipPath></defs></svg>
